; G-Code generated by Simplify3D(TM) Version 2.1.2
; Nov 4, 2014 at 6:28:24 PM
; Settings Summary
;   processName,Process1
;   applyToModels,keystone
;   printMaterial,
;   printQuality,
;   extruderName,Primary Extruder
;   extruderToolheadNumber,0
;   extruderDiameter,0.6
;   extruderAutoWidth,0
;   extruderWidth,0.7
;   extrusionMultiplier,1
;   extruderUseRetract,1
;   extruderRetractionDistance,4
;   extruderExtraRestartDistance,0
;   extruderRetractionZLift,0.1
;   extruderRetractionSpeed,2400
;   extruderUseCoasting,0
;   extruderCoastingDistance,1
;   extruderUseWipe,0
;   extruderWipeDistance,5
;   primaryExtruder,0
;   layerHeight,0.05
;   topSolidLayers,5
;   bottomSolidLayers,5
;   perimeterOutlines,5
;   printPerimetersInsideOut,1
;   startPointOption,2
;   startPointOriginX,0
;   startPointOriginY,0
;   startPointOriginZ,0
;   sequentialIslands,0
;   spiralVaseMode,0
;   firstLayerHeightRatio,1
;   firstLayerUnderspeed,0.3
;   useRaft,0
;   raftLayers,3
;   raftOffset,3
;   raftSeparationDistance,0.14
;   raftInfill,85
;   disableRaftBaseLayers,0
;   useSkirt,1
;   skirtLayers,1
;   skirtOutlines,2
;   skirtOffset,2
;   infillExtruder,0
;   externalInfillPattern,Concentric
;   infillPercentage,50
;   outlineOverlapPercentage,15
;   minInfillLength,5
;   infillLayerInterval,1
;   randomInfillStartPoint,0
;   infillAngles,45,-45
;   generateSupport,0
;   supportExtruder,0
;   supportInfill,10
;   supportExtraInflation,0
;   supportLayerInterval,1
;   supportHorizontalPartOffset,0.5
;   supportUpperSeparationLayers,2
;   supportLowerSeparationLayers,1
;   supportGridSpacing,6
;   maxOverhangAngle,80
;   supportAngles,0
;   temperatureName,Primary Extruder,Heated Bed
;   temperatureNumber,0,1
;   temperatureSetpointCount,2,1
;   temperatureSetpointLayers,1,3,1
;   temperatureSetpointTemperatures,250,240,65
;   temperatureStabilizeAtStartup,1,0
;   temperatureHeatedBed,0,1
;   temperatureRelayBetweenLayers,0,0
;   temperatureRelayBetweenLoops,0,0
;   fanLayers,1
;   fanSpeeds,0
;   blipFanToFullPower,1
;   adjustSpeedForCooling,1
;   minSpeedLayerTime,15
;   minCoolingSpeedSlowdown,20
;   increaseFanForCooling,0
;   minFanLayerTime,60
;   maxCoolingFanSpeed,100
;   increaseFanForBridging,0
;   bridgingFanSpeed,100
;   use5D,1
;   relativeEdistances,0
;   allowEaxisZeroing,1
;   includeM10123,0
;   stickySupport,1
;   detectArcs,0
;   arcReplaceG2G3,0
;   arcRadialCompensation,1
;   gcodeXoffset,0
;   gcodeYoffset,0
;   gcodeZoffset,0
;   overrideMachineDefinition,0
;   machineTypeOverride,1
;   strokeXoverride,170
;   strokeYoverride,170
;   strokeZoverride,185
;   originOffsetXoverride,0
;   originOffsetYoverride,0
;   originOffsetZoverride,0
;   homeXdirOverride,0
;   homeYdirOverride,0
;   homeZdirOverride,1
;   flipXoverride,1
;   flipYoverride,1
;   flipZoverride,1
;   startingGcode,G28 ; home all axes
;   layerChangeGcode,
;   toolChangeGcode,
;   endingGcode,M104 S0 ; turn off extruder,M140 S0 ; turn off bed,G28 ; home axes,M84 ; disable motors
;   createX3G,0
;   celebration,0
;   celebrationSong,Random Song
;   postProcessing,
;   defaultSpeed,6000
;   outlineUnderspeed,0.5
;   supportUnderspeed,1
;   rapidXYspeed,6000
;   rapidZspeed,6000
;   minBridgingArea,50
;   bridgingExtrusionMultiplier,0.95
;   bridgingSpeedMultiplier,0.7
;   filamentDiameter,1.75
;   filamentPricePerKg,26
;   useMinPrintHeight,0
;   minPrintHeight,0
;   useMaxPrintHeight,0
;   maxPrintHeight,0
;   overlapRemoval,0
;   overlapRemovalPercentage,0.3
;   useDiaphragm,0
;   diaphragmLayerInterval,1
;   robustSlicing,1
;   mergeAllIntoSolid,0
;   onlyRetractWhenCrossingOutline,1
;   retractBetweenLayers,0
;   useRetractionMinTravel,1
;   retractionMinTravel,1.5
;   useRetractionOozeRate,0
;   retractionOozeRate,100
;   onlyWipeOutlines,1
G90 ; use absolute coordinates
M82 ; absolute extrusion distances
G21 ; set units to millimeters
M106 S0
M140 S65
M104 S250 T0
M109 S250 T0
G28 ; home all axes
G92 E0
G1 E-4 F2400
G0 Z0.15 F6000
; layer 1, Z = 0.05
T0
; tool H0.05 W0.7
G0 X16.55 Y20.55 F6000
G0 Z0.05 F6000
G1 E0 F720
G92 E0
G1 X-16.55 Y20.55 E0.4816 F1800
G1 X-16.55 Y-20.55 E1.0797
G1 X16.55 Y-20.55 E1.5614
G1 X16.55 Y20.55 E2.1594
G0 X15.85 Y19.85 F6000
G92 E0
G1 X-15.85 Y19.85 E0.4613 F1800
G1 X-15.85 Y-19.85 E1.039
G1 X15.85 Y-19.85 E1.5002
G1 X15.85 Y19.85 E2.0779
G92 E0
G1 E-4 F2400
G0 Z0.15 F6000
G0 X10.35 Y14.35 F6000
G0 Z0.05 F6000
G1 E0 F2400
G92 E0
G1 X-10.35 Y14.35 E0.3012 F1620
G1 X-10.35 Y8.2 E0.3907
G1 X10.35 Y8.2 E0.6919
G1 X10.35 Y14.35 E0.7814
G0 X10.35 Y-12.7 F6000
G92 E0
G1 X-10.35 Y-12.7 E0.3012 F1620
G1 X-10.35 Y-14.35 E0.3252
G1 X10.35 Y-14.35 E0.6264
G1 X10.35 Y-12.7 E0.6504
G0 X11.05 Y15.05 F6000
G92 E0
G1 X-11.05 Y15.05 E0.3216 F1440
G1 X-11.05 Y-15.05 E0.7596
G1 X11.05 Y-15.05 E1.0812
G1 X11.05 Y15.05 E1.5192
G0 X9.95 Y7.5 F6000
G92 E0
G1 X9.95 Y-12 E0.2838 F1440
G1 X-9.95 Y-12 E0.5733
G1 X-9.95 Y7.5 E0.8571
G1 X9.95 Y7.5 E1.1466
G0 X11.75 Y15.75 F6000
G92 E0
G1 X-11.75 Y15.75 E0.342 F1260
G1 X-11.75 Y-15.75 E0.8003
G1 X11.75 Y-15.75 E1.1423
G1 X11.75 Y15.75 E1.6006
G0 X9.25 Y6.8 F6000
G92 E0
G1 X9.25 Y-11.3 E0.2634 F1260
G1 X-9.25 Y-11.3 E0.5326
G1 X-9.25 Y6.8 E0.796
G1 X9.25 Y6.8 E1.0652
G0 X12.45 Y16.45 F6000
G92 E0
G1 X-12.45 Y16.45 E0.3623 F1080
G1 X-12.45 Y-16.45 E0.8411
G1 X12.45 Y-16.45 E1.2034
G1 X12.45 Y16.45 E1.6821
G0 X8.55 Y6.1 F6000
G92 E0
G1 X8.55 Y-10.6 E0.243 F1080
G1 X-8.55 Y-10.6 E0.4918
G1 X-8.55 Y6.1 E0.7348
G1 X8.55 Y6.1 E0.9837
G0 X13.15 Y17.15 F6000
G92 E0
G1 X-13.15 Y17.15 E0.3827 F900
G1 X-13.15 Y-17.15 E0.8818
G1 X13.15 Y-17.15 E1.2645
G1 X13.15 Y17.15 E1.7636
G0 X7.85 Y5.4 F6000
G92 E0
G1 X7.85 Y-9.9 E0.2226 F900
G1 X-7.85 Y-9.9 E0.4511
G1 X-7.85 Y5.4 E0.6737
G1 X7.85 Y5.4 E0.9022
G0 X9.755 Y8.795 F6000
G92 E0
G1 X9.755 Y13.755 E0.0722 F1800
G1 X-9.755 Y13.755 E0.3561
G1 X-9.755 Y8.795 E0.4282
G1 X9.755 Y8.795 E0.7121
G0 X9.055 Y9.495 F6000
G92 E0
G1 X9.055 Y13.055 E0.0518 F1800
G1 X-9.055 Y13.055 E0.3153
G1 X-9.055 Y9.495 E0.3671
G1 X9.055 Y9.495 E0.6307
G0 X8.355 Y10.195 F6000
G92 E0
G1 X8.355 Y12.355 E0.0314 F1800
G1 X-8.355 Y12.355 E0.2746
G1 X-8.355 Y10.195 E0.306
G1 X8.355 Y10.195 E0.5492
G0 X7.655 Y10.895 F6000
G92 E0
G1 X7.655 Y11.655 E0.0111 F1800
G1 X-7.655 Y11.655 E0.2338
G1 X-7.655 Y10.895 E0.2449
G1 X7.655 Y10.895 E0.4677
G0 X9.755 Y-13.295 F6000
G92 E0
G1 X-9.755 Y-13.295 E0.2839 F1800
G1 X-9.755 Y-13.755 E0.2906
G1 X9.755 Y-13.755 E0.5745
G1 X9.755 Y-13.295 E0.5812
; layer 2, Z = 0.1
G0 X10.35 Y-12.8 F6000
G0 Z0.1 F6000
G92 E0
G1 X-10.35 Y-12.8 E0.3012 F5310
G1 X-10.35 Y-14.35 E0.3238
G1 X10.35 Y-14.35 E0.625
G1 X10.35 Y-12.8 E0.6475
G0 X10.35 Y8.3 F6000
G92 E0
G1 X10.35 Y14.35 E0.088 F5310
G1 X-10.35 Y14.35 E0.3892
G1 X-10.35 Y8.3 E0.4773
G1 X10.35 Y8.3 E0.7785
G0 X9.95 Y-12.1 F6000
G92 E0
G1 X-9.95 Y-12.1 E0.2896 F4720
G1 X-9.95 Y7.6 E0.5762
G1 X9.95 Y7.6 E0.8658
G1 X9.95 Y-12.1 E1.1525
G0 X11.05 Y-15.05 F6000
G92 E0
G1 X11.05 Y15.05 E0.438 F4720
G1 X-11.05 Y15.05 E0.7596
G1 X-11.05 Y-15.05 E1.1976
G1 X11.05 Y-15.05 E1.5192
G0 X9.25 Y-11.4 F6000
G92 E0
G1 X-9.25 Y-11.4 E0.2692 F4130
G1 X-9.25 Y6.9 E0.5355
G1 X9.25 Y6.9 E0.8047
G1 X9.25 Y-11.4 E1.071
G0 X11.75 Y-15.75 F6000
G92 E0
G1 X11.75 Y15.75 E0.4584 F4130
G1 X-11.75 Y15.75 E0.8003
G1 X-11.75 Y-15.75 E1.2587
G1 X11.75 Y-15.75 E1.6006
G0 X8.55 Y-10.7 F6000
G92 E0
G1 X-8.55 Y-10.7 E0.2488 F3540
G1 X-8.55 Y6.2 E0.4947
G1 X8.55 Y6.2 E0.7436
G1 X8.55 Y-10.7 E0.9895
G0 X12.45 Y-16.45 F6000
G92 E0
G1 X12.45 Y16.45 E0.4787 F3540
G1 X-12.45 Y16.45 E0.8411
G1 X-12.45 Y-16.45 E1.3198
G1 X12.45 Y-16.45 E1.6821
G0 X7.85 Y-10 F6000
G92 E0
G1 X-7.85 Y-10 E0.2285 F2950
G1 X-7.85 Y5.5 E0.454
G1 X7.85 Y5.5 E0.6825
G1 X7.85 Y-10 E0.908
G0 X13.15 Y-17.15 F6000
G92 E0
G1 X13.15 Y17.15 E0.4991 F2950
G1 X-13.15 Y17.15 E0.8818
G1 X-13.15 Y-17.15 E1.3809
G1 X13.15 Y-17.15 E1.7636
G0 X9.755 Y-13.755 F6000
G92 E0
G1 X9.755 Y-13.395 E0.0052 F5900
G1 X-9.755 Y-13.395 E0.2891
G1 X-9.755 Y-13.755 E0.2944
G1 X9.755 Y-13.755 E0.5783
G0 X9.755 Y8.895 F6000
G92 E0
G1 X9.755 Y13.755 E0.0707 F5900
G1 X-9.755 Y13.755 E0.3546
G1 X-9.755 Y8.895 E0.4253
G1 X9.755 Y8.895 E0.7092
G0 X9.055 Y9.595 F6000
G92 E0
G1 X9.055 Y13.055 E0.0503 F5900
G1 X-9.055 Y13.055 E0.3139
G1 X-9.055 Y9.595 E0.3642
G1 X9.055 Y9.595 E0.6277
G0 X8.355 Y10.295 F6000
G92 E0
G1 X8.355 Y12.355 E0.03 F5900
G1 X-8.355 Y12.355 E0.2731
G1 X-8.355 Y10.295 E0.3031
G1 X8.355 Y10.295 E0.5463
G0 X7.655 Y10.995 F6000
G92 E0
G1 X7.655 Y11.655 E0.0096 F5900
G1 X-7.655 Y11.655 E0.2324
G1 X-7.655 Y10.995 E0.242
G1 X7.655 Y10.995 E0.4648
; layer 3, Z = 0.15
M104 S240 T0
G0 X10.35 Y8.4 F6000
G0 Z0.15 F6000
G92 E0
G1 X10.35 Y14.35 E0.0866 F5314
G1 X-10.35 Y14.35 E0.3878
G1 X-10.35 Y8.4 E0.4744
G1 X10.35 Y8.4 E0.7756
G0 X10.35 Y-12.9 F6000
G92 E0
G1 X-10.35 Y-12.9 E0.3012 F5314
G1 X-10.35 Y-14.35 E0.3223
G1 X10.35 Y-14.35 E0.6235
G1 X10.35 Y-12.9 E0.6446
G0 X9.95 Y7.7 F6000
G92 E0
G1 X9.95 Y-12.2 E0.2896 F4723
G1 X-9.95 Y-12.2 E0.5791
G1 X-9.95 Y7.7 E0.8687
G1 X9.95 Y7.7 E1.1583
G0 X11.05 Y15.05 F6000
G92 E0
G1 X-11.05 Y15.05 E0.3216 F4723
G1 X-11.05 Y-15.05 E0.7596
G1 X11.05 Y-15.05 E1.0812
G1 X11.05 Y15.05 E1.5192
G0 X9.25 Y7 F6000
G92 E0
G1 X9.25 Y-11.5 E0.2692 F4133
G1 X-9.25 Y-11.5 E0.5384
G1 X-9.25 Y7 E0.8076
G1 X9.25 Y7 E1.0768
G0 X11.75 Y15.75 F6000
G92 E0
G1 X-11.75 Y15.75 E0.342 F4133
G1 X-11.75 Y-15.75 E0.8003
G1 X11.75 Y-15.75 E1.1423
G1 X11.75 Y15.75 E1.6006
G0 X8.55 Y6.3 F6000
G92 E0
G1 X8.55 Y-10.8 E0.2488 F3543
G1 X-8.55 Y-10.8 E0.4977
G1 X-8.55 Y6.3 E0.7465
G1 X8.55 Y6.3 E0.9953
G0 X12.45 Y16.45 F6000
G92 E0
G1 X-12.45 Y16.45 E0.3623 F3543
G1 X-12.45 Y-16.45 E0.8411
G1 X12.45 Y-16.45 E1.2034
G1 X12.45 Y16.45 E1.6821
G0 X7.85 Y5.6 F6000
G92 E0
G1 X7.85 Y-10.1 E0.2285 F2952
G1 X-7.85 Y-10.1 E0.4569
G1 X-7.85 Y5.6 E0.6854
G1 X7.85 Y5.6 E0.9138
G0 X13.15 Y17.15 F6000
G92 E0
G1 X-13.15 Y17.15 E0.3827 F2952
G1 X-13.15 Y-17.15 E0.8818
G1 X13.15 Y-17.15 E1.2645
G1 X13.15 Y17.15 E1.7636
G0 X9.755 Y13.755 F6000
G92 E0
G1 X-9.755 Y13.755 E0.2839 F5904
G1 X-9.755 Y8.995 E0.3532
G1 X9.755 Y8.995 E0.6371
G1 X9.755 Y13.755 E0.7063
G0 X9.055 Y13.055 F6000
G92 E0
G1 X-9.055 Y13.055 E0.2635 F5904
G1 X-9.055 Y9.695 E0.3124
G1 X9.055 Y9.695 E0.5759
G1 X9.055 Y13.055 E0.6248
G0 X8.355 Y12.355 F6000
G92 E0
G1 X-8.355 Y12.355 E0.2432 F5904
G1 X-8.355 Y10.395 E0.2717
G1 X8.355 Y10.395 E0.5148
G1 X8.355 Y12.355 E0.5433
G0 X7.655 Y11.655 F6000
G92 E0
G1 X-7.655 Y11.655 E0.2228 F5904
G1 X-7.655 Y11.095 E0.2309
G1 X7.655 Y11.095 E0.4537
G1 X7.655 Y11.655 E0.4619
G0 X9.755 Y-13.495 F6000
G92 E0
G1 X-9.755 Y-13.495 E0.2839 F5904
G1 X-9.755 Y-13.755 E0.2877
G1 X9.755 Y-13.755 E0.5716
G1 X9.755 Y-13.495 E0.5754
; layer 4, Z = 0.2
G0 X10.35 Y-13 F6000
G0 Z0.2 F6000
G92 E0
G1 X-10.35 Y-13 E0.3012 F5318
G1 X-10.35 Y-14.35 E0.3209
G1 X10.35 Y-14.35 E0.6221
G1 X10.35 Y-13 E0.6417
G0 X10.35 Y8.5 F6000
G92 E0
G1 X10.35 Y14.35 E0.0851 F5318
G1 X-10.35 Y14.35 E0.3863
G1 X-10.35 Y8.5 E0.4715
G1 X10.35 Y8.5 E0.7727
G0 X9.95 Y-12.3 F6000
G92 E0
G1 X-9.95 Y-12.3 E0.2896 F4727
G1 X-9.95 Y7.8 E0.5821
G1 X9.95 Y7.8 E0.8716
G1 X9.95 Y-12.3 E1.1641
G0 X11.05 Y-15.05 F6000
G92 E0
G1 X11.05 Y15.05 E0.438 F4727
G1 X-11.05 Y15.05 E0.7596
G1 X-11.05 Y-15.05 E1.1976
G1 X11.05 Y-15.05 E1.5192
G0 X9.25 Y-11.6 F6000
G92 E0
G1 X-9.25 Y-11.6 E0.2692 F4136
G1 X-9.25 Y7.1 E0.5413
G1 X9.25 Y7.1 E0.8105
G1 X9.25 Y-11.6 E1.0826
G0 X11.75 Y-15.75 F6000
G92 E0
G1 X11.75 Y15.75 E0.4584 F4136
G1 X-11.75 Y15.75 E0.8003
G1 X-11.75 Y-15.75 E1.2587
G1 X11.75 Y-15.75 E1.6006
G0 X8.55 Y-10.9 F6000
G92 E0
G1 X-8.55 Y-10.9 E0.2488 F3545
G1 X-8.55 Y6.4 E0.5006
G1 X8.55 Y6.4 E0.7494
G1 X8.55 Y-10.9 E1.0011
G0 X12.45 Y-16.45 F6000
G92 E0
G1 X12.45 Y16.45 E0.4787 F3545
G1 X-12.45 Y16.45 E0.8411
G1 X-12.45 Y-16.45 E1.3198
G1 X12.45 Y-16.45 E1.6821
G0 X7.85 Y-10.2 F6000
G92 E0
G1 X-7.85 Y-10.2 E0.2285 F2954
G1 X-7.85 Y5.7 E0.4598
G1 X7.85 Y5.7 E0.6883
G1 X7.85 Y-10.2 E0.9196
G0 X13.15 Y-17.15 F6000
G92 E0
G1 X13.15 Y17.15 E0.4991 F2954
G1 X-13.15 Y17.15 E0.8818
G1 X-13.15 Y-17.15 E1.3809
G1 X13.15 Y-17.15 E1.7636
G0 X9.755 Y-13.755 F6000
G92 E0
G1 X9.755 Y-13.595 E0.0023 F5909
G1 X-9.755 Y-13.595 E0.2862
G1 X-9.755 Y-13.755 E0.2886
G1 X9.755 Y-13.755 E0.5724
G0 X9.755 Y9.095 F6000
G92 E0
G1 X9.755 Y13.755 E0.0678 F5909
G1 X-9.755 Y13.755 E0.3517
G1 X-9.755 Y9.095 E0.4195
G1 X9.755 Y9.095 E0.7034
G0 X9.055 Y9.795 F6000
G92 E0
G1 X9.055 Y13.055 E0.0474 F5909
G1 X-9.055 Y13.055 E0.311
G1 X-9.055 Y9.795 E0.3584
G1 X9.055 Y9.795 E0.6219
G0 X8.355 Y10.495 F6000
G92 E0
G1 X8.355 Y12.355 E0.0271 F5909
G1 X-8.355 Y12.355 E0.2702
G1 X-8.355 Y10.495 E0.2973
G1 X8.355 Y10.495 E0.5404
G0 X7.655 Y11.195 F6000
G92 E0
G1 X7.655 Y11.655 E0.0067 F5909
G1 X-7.655 Y11.655 E0.2295
G1 X-7.655 Y11.195 E0.2362
G1 X7.655 Y11.195 E0.4589
; layer 5, Z = 0.25
G0 X10.35 Y8.6 F6000
G0 Z0.25 F6000
G92 E0
G1 X10.35 Y14.35 E0.0837 F5322
G1 X-10.35 Y14.35 E0.3849
G1 X-10.35 Y8.6 E0.4686
G1 X10.35 Y8.6 E0.7698
G0 X10.35 Y-13.1 F6000
G92 E0
G1 X-10.35 Y-13.1 E0.3012 F5322
G1 X-10.35 Y-14.35 E0.3194
G1 X10.35 Y-14.35 E0.6206
G1 X10.35 Y-13.1 E0.6388
G0 X9.95 Y7.9 F6000
G92 E0
G1 X9.95 Y-12.4 E0.2954 F4730
G1 X-9.95 Y-12.4 E0.585
G1 X-9.95 Y7.9 E0.8804
G1 X9.95 Y7.9 E1.1699
G0 X11.05 Y15.05 F6000
G92 E0
G1 X-11.05 Y15.05 E0.3216 F4730
G1 X-11.05 Y-15.05 E0.7596
G1 X11.05 Y-15.05 E1.0812
G1 X11.05 Y15.05 E1.5192
G0 X9.25 Y7.2 F6000
G92 E0
G1 X9.25 Y-11.7 E0.275 F4139
G1 X-9.25 Y-11.7 E0.5442
G1 X-9.25 Y7.2 E0.8192
G1 X9.25 Y7.2 E1.0884
G0 X11.75 Y15.75 F6000
G92 E0
G1 X-11.75 Y15.75 E0.342 F4139
G1 X-11.75 Y-15.75 E0.8003
G1 X11.75 Y-15.75 E1.1423
G1 X11.75 Y15.75 E1.6006
G0 X8.55 Y6.5 F6000
G92 E0
G1 X8.55 Y-11 E0.2546 F3548
G1 X-8.55 Y-11 E0.5035
G1 X-8.55 Y6.5 E0.7581
G1 X8.55 Y6.5 E1.0069
G0 X12.45 Y16.45 F6000
G92 E0
G1 X-12.45 Y16.45 E0.3623 F3548
G1 X-12.45 Y-16.45 E0.8411
G1 X12.45 Y-16.45 E1.2034
G1 X12.45 Y16.45 E1.6821
G0 X7.85 Y5.8 F6000
G92 E0
G1 X7.85 Y-10.3 E0.2343 F2957
G1 X-7.85 Y-10.3 E0.4627
G1 X-7.85 Y5.8 E0.697
G1 X7.85 Y5.8 E0.9255
G0 X13.15 Y17.15 F6000
G92 E0
G1 X-13.15 Y17.15 E0.3827 F2957
G1 X-13.15 Y-17.15 E0.8818
G1 X13.15 Y-17.15 E1.2645
G1 X13.15 Y17.15 E1.7636
G0 X9.755 Y13.755 F6000
G92 E0
G1 X-9.755 Y13.755 E0.2839 F5913
G1 X-9.755 Y9.195 E0.3503
G1 X9.755 Y9.195 E0.6341
G1 X9.755 Y13.755 E0.7005
G0 X9.055 Y13.055 F6000
G92 E0
G1 X-9.055 Y13.055 E0.2635 F5913
G1 X-9.055 Y9.895 E0.3095
G1 X9.055 Y9.895 E0.573
G1 X9.055 Y13.055 E0.619
G0 X8.355 Y12.355 F6000
G92 E0
G1 X-8.355 Y12.355 E0.2432 F5913
G1 X-8.355 Y10.595 E0.2688
G1 X8.355 Y10.595 E0.5119
G1 X8.355 Y12.355 E0.5375
G0 X7.655 Y11.655 F6000
G92 E0
G1 X-7.655 Y11.655 E0.2228 F5913
G1 X-7.655 Y11.295 E0.228
G1 X7.655 Y11.295 E0.4508
G1 X7.655 Y11.655 E0.456
G0 X9.755 Y-13.695 F6000
G92 E0
G1 X-9.755 Y-13.695 E0.2839 F5913
G1 X-9.755 Y-13.755 E0.2848
G1 X9.755 Y-13.755 E0.5687
G1 X9.755 Y-13.695 E0.5695
; layer 6, Z = 0.3
G0 X10.35 Y-13.2 F6000
G0 Z0.3 F6000
G92 E0
G1 X-10.35 Y-13.2 E0.3012 F4931
G1 X-10.35 Y-14.35 E0.3179
G1 X10.35 Y-14.35 E0.6192
G1 X10.35 Y-13.2 E0.6359
G0 X10.35 Y8.7 F6000
G92 E0
G1 X10.35 Y14.35 E0.0822 F4931
G1 X-10.35 Y14.35 E0.3834
G1 X-10.35 Y8.7 E0.4656
G1 X10.35 Y8.7 E0.7669
G0 X9.95 Y-12.5 F6000
G92 E0
G1 X-9.95 Y-12.5 E0.2896 F4383
G1 X-9.95 Y8 E0.5879
G1 X9.95 Y8 E0.8774
G1 X9.95 Y-12.5 E1.1757
G0 X11.05 Y-15.05 F6000
G92 E0
G1 X11.05 Y15.05 E0.438 F4383
G1 X-11.05 Y15.05 E0.7596
G1 X-11.05 Y-15.05 E1.1976
G1 X11.05 Y-15.05 E1.5192
G0 X9.25 Y-11.8 F6000
G92 E0
G1 X-9.25 Y-11.8 E0.2692 F3835
G1 X-9.25 Y7.3 E0.5471
G1 X9.25 Y7.3 E0.8163
G1 X9.25 Y-11.8 E1.0943
G0 X11.75 Y-15.75 F6000
G92 E0
G1 X11.75 Y15.75 E0.4584 F3835
G1 X-11.75 Y15.75 E0.8003
G1 X-11.75 Y-15.75 E1.2587
G1 X11.75 Y-15.75 E1.6006
G0 X8.55 Y-11.1 F6000
G92 E0
G1 X-8.55 Y-11.1 E0.2488 F3287
G1 X-8.55 Y6.6 E0.5064
G1 X8.55 Y6.6 E0.7552
G1 X8.55 Y-11.1 E1.0128
G0 X12.45 Y-16.45 F6000
G92 E0
G1 X12.45 Y16.45 E0.4787 F3287
G1 X-12.45 Y16.45 E0.8411
G1 X-12.45 Y-16.45 E1.3198
G1 X12.45 Y-16.45 E1.6821
G0 X7.85 Y-10.4 F6000
G92 E0
G1 X-7.85 Y-10.4 E0.2285 F2739
G1 X-7.85 Y5.9 E0.4656
